X: 19917
T: Jig Of Beer
R: jig
M: 6/8
K: Dmajor
fAA fAA|gAA gAA|aaa age|dcd efg|
fAA fAA|gAA gAA|aaa age|dce d3:|
cde efg|age edc|ddd deg|a2g e2d|
cde efg|age edc|def gag|edc d3:|

